X:353
T:Jenkins
R:Hornpipe
B:The Athole Colletion
M:C|
L:1/8
K:B_
Bcde fBAB|gBaB bBAB|GBFB EBDB|Ccec BAGF|Bcde fBAB|
gBaB bBAB|GBFB EBDB|CecA ~B4:|
|:fBAB gBAB|gaba g^fgf|edc^B cBcd|edec _BAGF|Bcde fBAB|
gBaB bBAB|GBFB EBDB|CecA ~B4:|

